X: 213
T: Whistling Gypsy (Spailpin Fanach)
M: 4/4
L: 1/8
R: hornpipe
K: G
gf|"Em"efed "G"B2A2|GABG "Em"E2EF|"G"G2GF "C"GABc|"D"dedc "G"B2 gf|
"C"efed "G"B2A2|GABG "C"EDEG|"D"FGAF DEFA|"G"G6:|
|:GA|Bdef g2fg|"C"agfe "G"d2 Bd|"C"edef "G"gfed|"C"e2f2 "G"g2 fg|
"C"efed "G"BcBA|GABG "C"EDEG|"D"FGAF DEFA|"G"G6:|
